latex_in_markdown/.watch-latex-md-images/76cc814eb790ce3c94002e2c22b65534.svg

<ns0:svg xmlns:ns0="http://www.w3.org/2000/svg" xmlns:ns1="http://www.w3.org/1999/xlink" height="10.7597pt" version="1.1" viewBox="23.686 67.3076 13.1345 10.7597" width="13.1345pt" watch_lated_md:baseline="3.3474999999999877" xmlns:watch_lated_md="https://github.com/Quansight/pearu-sandbox/latex_in_markdown/">
<ns0:defs>
<ns0:path d="m4.52766 1.92813c-0.464817 0.654187 -1.13622 1.23951 -1.97978 1.23951c-0.206585 0 -1.03293 -0.0344309 -1.29116 -0.826341c0.0516463 0.0172154 0.137724 0.0172154 0.172154 0.0172154c0.516463 0 0.860772 -0.447601 0.860772 -0.843557s-0.327093 -0.533679 -0.585325 -0.533679c-0.275447 0 -0.877987 0.206585 -0.877987 1.05014c0 0.877987 0.740264 1.48053 1.72154 1.48053c1.72154 0 3.4603 -1.58382 3.94234 -3.49473l1.68711 -6.71402c0.0172154 -0.0860772 0.0516463 -0.18937 0.0516463 -0.292662c0 -0.258232 -0.206585 -0.430386 -0.464817 -0.430386c-0.154939 0 -0.516463 0.0688618 -0.654187 0.585325l-1.27394 5.06134c-0.0860772 0.309878 -0.0860772 0.344309 -0.223801 0.533679c-0.344309 0.482032 -0.912418 1.06736 -1.73876 1.06736c-0.964065 0 -1.05014 -0.946849 -1.05014 -1.41167c0 -0.98128 0.464817 -2.30687 0.929634 -3.54638c0.18937 -0.499248 0.292662 -0.740264 0.292662 -1.08457c0 -0.723049 -0.516463 -1.37724 -1.36002 -1.37724c-1.58382 0 -2.22079 2.49624 -2.22079 2.63396c0 0.0688618 0.0688618 0.154939 0.18937 0.154939c0.154939 0 0.172154 -0.0688618 0.241016 -0.309878c0.413171 -1.4461 1.06736 -2.13471 1.73876 -2.13471c0.154939 0 0.447601 0 0.447601 0.56811c0 0.447601 -0.18937 0.946849 -0.447601 1.60104c-0.843557 2.25522 -0.843557 2.82333 -0.843557 3.2365c0 1.63547 1.17065 2.01421 2.03142 2.01421c0.499248 0 1.119 -0.154939 1.72154 -0.79191l0.0172154 0.0172154c-0.258232 1.01571 -0.430386 1.68711 -1.03293 2.53067z" id="g0-121" />
<ns0:path d="m2.85776 -0.705833c0 -0.430386 -0.344309 -0.705833 -0.705833 -0.705833c-0.344309 0 -0.705833 0.275447 -0.705833 0.705833s0.344309 0.705833 0.705833 0.705833c0.344309 0 0.705833 -0.275447 0.705833 -0.705833z" id="g1-46" />
</ns0:defs>
<ns0:g id="page1">
<ns0:use x="27.9837" ns1:href="#g0-121" y="74.7198" />
</ns0:g>
</ns0:svg>

<ns0:svg xmlns:ns0="http://www.w3.org/2000/svg" xmlns:ns1="http://www.w3.org/1999/xlink" height="10.7597pt" version="1.1" viewBox="23.686 67.3076 13.1345 10.7597" width="13.1345pt" watch_lated_md:baseline="3.3474999999999877" xmlns:watch_lated_md="https://github.com/Quansight/pearu-sandbox/latex_in_markdown/">
<ns0:defs>
<ns0:path d="M4.52766 1.92813C4.06284 2.58232 3.39144 3.16764 2.54789 3.16764C2.3413 3.16764 1.51496 3.13321 1.25673 2.3413C1.30837 2.35852 1.39445 2.35852 1.42888 2.35852C1.94534 2.35852 2.28965 1.91091 2.28965 1.51496S1.96256 0.98128 1.70433 0.98128C1.42888 0.98128 0.826341 1.18787 0.826341 2.03142C0.826341 2.90941 1.56661 3.51195 2.54789 3.51195C4.26943 3.51195 6.00819 1.92813 6.49022 0.0172154L8.17733 -6.69681C8.19455 -6.78288 8.22898 -6.88618 8.22898 -6.98947C8.22898 -7.2477 8.0224 -7.41986 7.76416 -7.41986C7.60922 -7.41986 7.2477 -7.35099 7.10998 -6.83453L5.83603 -1.77319C5.74996 -1.46331 5.74996 -1.42888 5.61223 -1.23951C5.26792 -0.757479 4.69982 -0.172154 3.87347 -0.172154C2.90941 -0.172154 2.82333 -1.119 2.82333 -1.58382C2.82333 -2.5651 3.28815 -3.89069 3.75297 -5.1302C3.94234 -5.62945 4.04563 -5.87047 4.04563 -6.21477C4.04563 -6.93782 3.52917 -7.59201 2.68561 -7.59201C1.10179 -7.59201 0.464817 -5.09577 0.464817 -4.95805C0.464817 -4.88919 0.533679 -4.80311 0.654187 -4.80311C0.809126 -4.80311 0.826341 -4.87197 0.895203 -5.11299C1.30837 -6.55908 1.96256 -7.2477 2.63396 -7.2477C2.7889 -7.2477 3.08156 -7.2477 3.08156 -6.67959C3.08156 -6.23199 2.89219 -5.73274 2.63396 -5.07856C1.79041 -2.82333 1.79041 -2.25522 1.79041 -1.84205C1.79041 -0.206585 2.96106 0.172154 3.82183 0.172154C4.32108 0.172154 4.94083 0.0172154 5.54337 -0.619756L5.56059 -0.60254C5.30236 0.413171 5.1302 1.08457 4.52766 1.92813Z" id="g0-121" />
<ns0:path d="M2.85776 -0.705833C2.85776 -1.13622 2.51345 -1.41167 2.15193 -1.41167C1.80762 -1.41167 1.4461 -1.13622 1.4461 -0.705833S1.79041 0 2.15193 0C2.49624 0 2.85776 -0.275447 2.85776 -0.705833Z" id="g1-46" />
</ns0:defs>
<ns0:g id="page1">
<ns0:use x="27.9837" ns1:href="#g0-121" y="74.7198" />
</ns0:g>
</ns0:svg>
